images/logo-twitter.svg

<svg width="23" height="19" viewBox="0 0 23 19" xmlns="http://www.w3.org/2000/svg"><g fill="none" fill-rule="evenodd"><path d="M22.444 2.834c-.814.363-1.5.375-2.227.016.938-.562.981-.957 1.32-2.019-.878.521-1.851.9-2.886 1.104a4.545 4.545 0 0 0-7.743 4.145 12.897 12.897 0 0 1-9.366-4.748 4.525 4.525 0 0 0-.615 2.285c0 1.577.803 2.967 2.021 3.782a4.527 4.527 0 0 1-2.057-.568l-.001.057a4.547 4.547 0 0 0 3.646 4.456 4.575 4.575 0 0 1-2.053.079 4.551 4.551 0 0 0 4.245 3.155A9.138 9.138 0 0 1 0 16.459 12.865 12.865 0 0 0 6.966 18.5c8.358 0 12.928-6.924 12.928-12.929 0-.198-.003-.393-.012-.588.887-.64 1.953-1.237 2.562-2.149z" fill-rule="nonzero" fill="#FFF"/><path d="M-1-2h24v24H-1z"/></g></svg>

<?xml version="1.0" encoding="UTF-8"?>
<svg width="23px" height="19px" viewBox="0 0 23 19" version="1.1" xmlns="http://www.w3.org/2000/svg" xmlns:xlink="http://www.w3.org/1999/xlink">
    <defs></defs>
    <g id="Page-1" stroke="none" stroke-width="1" fill="none" fill-rule="evenodd">
        <g id="logo-twitter-bird" transform="translate(-1.000000, -2.000000)">
            <g id="Filled_Icons" transform="translate(1.000000, 2.000000)" fill-rule="nonzero" fill="#FFFFFF">
                <path d="M22.444,2.834 C21.63,3.197 20.944,3.209 20.217,2.85 C21.155,2.288 21.198,1.893 21.537,0.831 C20.659,1.352 19.686,1.731 18.651,1.935 C17.823,1.053 16.642,0.5 15.335,0.5 C12.825,0.5 10.791,2.536 10.791,5.044 C10.791,5.4 10.831,5.747 10.908,6.08 C7.132,5.891 3.783,4.082 1.542,1.332 C1.151,2.003 0.927,2.784 0.927,3.617 C0.927,5.194 1.73,6.584 2.948,7.399 C2.203,7.375 1.503,7.171 0.891,6.831 C0.89,6.85 0.89,6.868 0.89,6.888 C0.89,9.09 2.456,10.926 4.536,11.344 C3.87,11.525 3.168,11.553 2.483,11.423 C3.062,13.227 4.74,14.541 6.728,14.578 C4.783,16.102 2.372,16.737 0,16.459 C2.012,17.748 4.399,18.5 6.966,18.5 C15.324,18.5 19.894,11.576 19.894,5.571 C19.894,5.373 19.891,5.178 19.882,4.983 C20.769,4.343 21.835,3.746 22.444,2.834 Z" id="Shape"></path>
            </g>
            <g id="Frames-24px">
                <rect id="Rectangle-path" x="0" y="0" width="24" height="24"></rect>
            </g>
        </g>
    </g>
</svg>
